Newaita-dark/apps/24/com.github.timecraft.notifier.svg

<svg height="24" viewBox="0 0 24 24" width="24" xmlns="http://www.w3.org/2000/svg" xmlns:xlink="http://www.w3.org/1999/xlink"><linearGradient id="a" gradientUnits="userSpaceOnUse" x1="11.90739" x2="11.90739" y1="21.02545225" y2="22.01773525002"><stop offset="0" stop-opacity=".27451"/><stop offset="1" stop-opacity="0"/></linearGradient><linearGradient id="b"><stop offset="0" stop-opacity=".313726"/><stop offset=".222222" stop-opacity=".27451"/><stop offset="1" stop-opacity="0"/></linearGradient><radialGradient id="c" cx="450.908936" cy="189.579361" gradientTransform="matrix(.00000013 -.0585994 -.105479 -.00000008 39.097986 47.696499)" gradientUnits="userSpaceOnUse" r="21.166656" xlink:href="#b"/><radialGradient id="d" cx="450.908936" cy="189.579361" gradientTransform="matrix(-.00000013 .0585994 .105479 .00000008 -15.28321 -5.645609)" gradientUnits="userSpaceOnUse" r="21.166656" xlink:href="#b"/><radialGradient id="e" cx="450.908936" cy="189.579361" gradientTransform="matrix(-.00000013 -.0585994 .105479 -.00000008 -15.28321 47.696499)" gradientUnits="userSpaceOnUse" r="21.166656" xlink:href="#b"/><radialGradient id="f" cx="450.908936" cy="189.579361" gradientTransform="matrix(.00000013 .0585994 -.105479 .00000008 39.097985 -5.64561)" gradientUnits="userSpaceOnUse" r="21.166656" xlink:href="#b"/><linearGradient id="g" gradientUnits="userSpaceOnUse" x1="7.93826174998" x2="7.93826174998" y1="21.02545025" y2="2.17207850005"><stop offset="0" stop-color="#f44336"/><stop offset="1" stop-color="#ef5350"/></linearGradient><linearGradient id="h" gradientUnits="userSpaceOnUse" x1="11.933016" x2="11.933016" y1="20.03314714717" y2="4.15666657661"><stop offset="0" stop-color="#bdbdbd"/><stop offset="1" stop-color="#e0e0e0"/></linearGradient><path d="m4.464844 20.953125h14.882812v1.101563h-14.882812zm0 0" fill="url(#a)"/><path d="m19.347656 21.027344h1.988282v-.996094h-1.988282zm0 0" fill="url(#c)"/><path d="m4.464844 21.027344h-1.984375v.992187h1.984375zm0 0" fill="url(#d)"/><path d="m4.464844 21.027344h-1.984375v-.996094h1.984375zm0 0" fill="url(#e)"/><path d="m19.347656 21.027344h1.988282v.992187h-1.988282zm0 0" fill="url(#f)"/><path d="m3.472656 2.171875h16.867188c.550781 0 .996094.445313.996094.992187v16.867188c0 .550781-.445313.996094-.996094.996094h-16.867188c-.546875 0-.992187-.445313-.992187-.996094v-16.867188c0-.546874.445312-.992187.992187-.992187zm0 0" fill="url(#g)"/><path d="m3.472656 2.171875c-.550781 0-.992187.441406-.992187.992187v.125c0-.550781.441406-.992187.992187-.992187h16.867188c.550781 0 .996094.441406.996094.992187v-.125c0-.550781-.445313-.992187-.996094-.992187zm0 0" fill="#e6e6e6" fill-opacity=".392157"/><path d="m3.472656 21.027344c-.550781 0-.992187-.445313-.992187-.996094v-.121094c0 .546875.441406.992188.992187.992188h16.867188c.550781 0 .996094-.445313.996094-.992188v.121094c0 .550781-.445313.996094-.996094.996094zm0 0" fill-opacity=".196078"/><path d="m74.076259-168.671091h359.798975c11.748878 0 21.247971 9.499093 21.247971 21.164646v359.798974c0 11.748878-9.499093 21.247971-21.247971 21.247971h-359.798975c-11.665552 0-21.164645-9.499093-21.164645-21.247971v-359.798974c0-11.665553 9.499093-21.164646 21.164645-21.164646zm0 0" fill="none" stroke="#212121" stroke-linecap="round" stroke-width="3" transform="matrix(.0468795 0 0 .0468795 0 10.079087)"/><path d="m10.941406 6.140625c-.289062 0-.515625.246094-.496094.535156l.496094 6.449219c.019532.257812.238282.457031.496094.457031h.992188c.257812 0 .472656-.199219.492187-.457031l.496094-6.449219c.023437-.289062-.203125-.535156-.492188-.535156zm.992188 8.433594c-.550782 0-.992188.445312-.992188.992187 0 .550782.441406.992188.992188.992188.550781 0 .992187-.441406.992187-.992188 0-.546875-.441406-.992187-.992187-.992187zm0 0" fill="url(#h)"/><path d="m10.941406 6.140625c-.289062 0-.515625.246094-.496094.535156l.015626.203125c.058593-.207031.25-.363281.480468-.363281h1.984375c.230469 0 .421875.15625.476563.363281l.015625-.203125c.023437-.289062-.203125-.535156-.492188-.535156zm.992188 8.433594c-.550782 0-.992188.445312-.992188.992187 0 .066406.003906.128906.015625.1875.085938-.460937.488281-.804687.976563-.804687.484375 0 .886718.34375.972656.804687.011719-.058594.019531-.121094.019531-.1875 0-.546875-.441406-.992187-.992187-.992187zm0 0" fill="#fff" fill-opacity=".86129"/><path d="m10.46875 6.980469c-.019531.058593-.027344.125-.023438.191406l.496094 6.449219c.019532.257812.238282.457031.496094.457031h.992188c.257812 0 .472656-.199219.492187-.457031l.496094-6.449219c.007812-.066406-.003907-.132813-.023438-.191406l-.472656 6.144531c-.019531.257812-.234375.457031-.492187.457031h-.992188c-.257812 0-.476562-.199219-.496094-.457031zm.503906 8.835937c-.019531.078125-.03125.164063-.03125.25 0 .546875.441406.992188.992188.992188.550781 0 .992187-.445313.992187-.992188 0-.085937-.011719-.171875-.03125-.25-.109375.429688-.496093.742188-.960937.742188s-.851563-.3125-.960938-.742188zm0 0" fill-opacity=".235294"/><path d="m233.394379-84.012509c-6.166078 0-10.99895 5.249499-10.582323 11.415577l10.582323 137.570196c.416626 5.499475 5.082848 9.749069 10.582322 9.749069h21.164646c5.499475 0 10.08237-4.249594 10.498997-9.749069l10.582323-137.570196c.499952-6.166078-4.332919-11.415577-10.498997-11.415577zm21.164645 179.899487c-11.748878 0-21.164645 9.499093-21.164645 21.164646 0 11.748878 9.415767 21.164646 21.164645 21.164646s21.164646-9.415768 21.164646-21.164646c0-11.665553-9.415768-21.164646-21.164646-21.164646zm0 0" fill="none" stroke="#212121" stroke-linecap="round" stroke-linejoin="round" stroke-width="3" transform="matrix(.0468795 0 0 .0468795 0 10.079087)"/></svg>

<?xml version="1.0" encoding="UTF-8"?>
<svg xmlns="http://www.w3.org/2000/svg" xmlns:xlink="http://www.w3.org/1999/xlink" width="24px" height="24px" viewBox="0 0 24 24" version="1.1">
<defs>
<linearGradient id="linear0" gradientUnits="userSpaceOnUse" x1="254" y1="233.5" x2="254" y2="254.666672" gradientTransform="matrix(0.0468795,0,0,0.0468795,-0.0000028613,10.079089)">
<stop offset="0" style="stop-color:rgb(0%,0%,0%);stop-opacity:0.27451;"/>
<stop offset="1" style="stop-color:rgb(0%,0%,0%);stop-opacity:0;"/>
</linearGradient>
<radialGradient id="radial0" gradientUnits="userSpaceOnUse" cx="450.908936" cy="189.579361" fx="450.908936" fy="189.579361" r="21.166656" gradientTransform="matrix(0.000000130628,-0.0585994,-0.105479,-0.0000000761539,39.097986,47.696499)">
<stop offset="0" style="stop-color:rgb(0%,0%,0%);stop-opacity:0.313726;"/>
<stop offset="0.222222" style="stop-color:rgb(0%,0%,0%);stop-opacity:0.27451;"/>
<stop offset="1" style="stop-color:rgb(0%,0%,0%);stop-opacity:0;"/>
</radialGradient>
<radialGradient id="radial1" gradientUnits="userSpaceOnUse" cx="450.908936" cy="189.579361" fx="450.908936" fy="189.579361" r="21.166656" gradientTransform="matrix(-0.000000130628,0.0585994,0.105479,0.0000000761539,-15.28321,-5.645609)">
<stop offset="0" style="stop-color:rgb(0%,0%,0%);stop-opacity:0.313726;"/>
<stop offset="0.222222" style="stop-color:rgb(0%,0%,0%);stop-opacity:0.27451;"/>
<stop offset="1" style="stop-color:rgb(0%,0%,0%);stop-opacity:0;"/>
</radialGradient>
<radialGradient id="radial2" gradientUnits="userSpaceOnUse" cx="450.908936" cy="189.579361" fx="450.908936" fy="189.579361" r="21.166656" gradientTransform="matrix(-0.000000130628,-0.0585994,0.105479,-0.0000000761539,-15.28321,47.696499)">
<stop offset="0" style="stop-color:rgb(0%,0%,0%);stop-opacity:0.313726;"/>
<stop offset="0.222222" style="stop-color:rgb(0%,0%,0%);stop-opacity:0.27451;"/>
<stop offset="1" style="stop-color:rgb(0%,0%,0%);stop-opacity:0;"/>
</radialGradient>
<radialGradient id="radial3" gradientUnits="userSpaceOnUse" cx="450.908936" cy="189.579361" fx="450.908936" fy="189.579361" r="21.166656" gradientTransform="matrix(0.000000130628,0.0585994,-0.105479,0.0000000761539,39.097985,-5.64561)">
<stop offset="0" style="stop-color:rgb(0%,0%,0%);stop-opacity:0.313726;"/>
<stop offset="0.222222" style="stop-color:rgb(0%,0%,0%);stop-opacity:0.27451;"/>
<stop offset="1" style="stop-color:rgb(0%,0%,0%);stop-opacity:0;"/>
</radialGradient>
<linearGradient id="linear1" gradientUnits="userSpaceOnUse" x1="169.333328" y1="233.5" x2="169.333328" y2="-168.666656" gradientTransform="matrix(0.0468795,0,0,0.0468795,0,10.079087)">
<stop offset="0" style="stop-color:rgb(95.686275%,26.274511%,21.176471%);stop-opacity:1;"/>
<stop offset="1" style="stop-color:rgb(93.725491%,32.549021%,31.37255%);stop-opacity:1;"/>
</linearGradient>
<linearGradient id="linear2" gradientUnits="userSpaceOnUse" x1="960" y1="1455.118164" x2="960" y2="175.118118" gradientTransform="matrix(0.0124035,0,0,0.0124035,0.0256557,1.984589)">
<stop offset="0" style="stop-color:rgb(74.117649%,74.117649%,74.117649%);stop-opacity:1;"/>
<stop offset="1" style="stop-color:rgb(87.843138%,87.843138%,87.843138%);stop-opacity:1;"/>
</linearGradient>
</defs>
<g id="surface1">
<path style=" stroke:none;fill-rule:nonzero;fill:url(#linear0);" d="M 4.464844 20.953125 L 19.347656 20.953125 L 19.347656 22.054688 L 4.464844 22.054688 Z M 4.464844 20.953125 "/>
<path style=" stroke:none;fill-rule:nonzero;fill:url(#radial0);" d="M 19.347656 21.027344 L 21.335938 21.027344 L 21.335938 20.03125 L 19.347656 20.03125 Z M 19.347656 21.027344 "/>
<path style=" stroke:none;fill-rule:nonzero;fill:url(#radial1);" d="M 4.464844 21.027344 L 2.480469 21.027344 L 2.480469 22.019531 L 4.464844 22.019531 Z M 4.464844 21.027344 "/>
<path style=" stroke:none;fill-rule:nonzero;fill:url(#radial2);" d="M 4.464844 21.027344 L 2.480469 21.027344 L 2.480469 20.03125 L 4.464844 20.03125 Z M 4.464844 21.027344 "/>
<path style=" stroke:none;fill-rule:nonzero;fill:url(#radial3);" d="M 19.347656 21.027344 L 21.335938 21.027344 L 21.335938 22.019531 L 19.347656 22.019531 Z M 19.347656 21.027344 "/>
<path style=" stroke:none;fill-rule:nonzero;fill:url(#linear1);" d="M 3.472656 2.171875 L 20.339844 2.171875 C 20.890625 2.171875 21.335938 2.617188 21.335938 3.164062 L 21.335938 20.03125 C 21.335938 20.582031 20.890625 21.027344 20.339844 21.027344 L 3.472656 21.027344 C 2.925781 21.027344 2.480469 20.582031 2.480469 20.03125 L 2.480469 3.164062 C 2.480469 2.617188 2.925781 2.171875 3.472656 2.171875 Z M 3.472656 2.171875 "/>
<path style=" stroke:none;fill-rule:nonzero;fill:rgb(90.196079%,90.196079%,90.196079%);fill-opacity:0.392157;" d="M 3.472656 2.171875 C 2.921875 2.171875 2.480469 2.613281 2.480469 3.164062 L 2.480469 3.289062 C 2.480469 2.738281 2.921875 2.296875 3.472656 2.296875 L 20.339844 2.296875 C 20.890625 2.296875 21.335938 2.738281 21.335938 3.289062 L 21.335938 3.164062 C 21.335938 2.613281 20.890625 2.171875 20.339844 2.171875 Z M 3.472656 2.171875 "/>
<path style=" stroke:none;fill-rule:nonzero;fill:rgb(0%,0%,0%);fill-opacity:0.196078;" d="M 3.472656 21.027344 C 2.921875 21.027344 2.480469 20.582031 2.480469 20.03125 L 2.480469 19.910156 C 2.480469 20.457031 2.921875 20.902344 3.472656 20.902344 L 20.339844 20.902344 C 20.890625 20.902344 21.335938 20.457031 21.335938 19.910156 L 21.335938 20.03125 C 21.335938 20.582031 20.890625 21.027344 20.339844 21.027344 Z M 3.472656 21.027344 "/>
<path style="fill:none;stroke-width:3;stroke-linecap:round;stroke-linejoin:miter;stroke:rgb(12.941177%,12.941177%,12.941177%);stroke-opacity:1;stroke-miterlimit:4;" d="M 74.076259 -168.671091 L 433.875234 -168.671091 C 445.624112 -168.671091 455.123205 -159.171998 455.123205 -147.506445 L 455.123205 212.292529 C 455.123205 224.041407 445.624112 233.5405 433.875234 233.5405 L 74.076259 233.5405 C 62.410707 233.5405 52.911614 224.041407 52.911614 212.292529 L 52.911614 -147.506445 C 52.911614 -159.171998 62.410707 -168.671091 74.076259 -168.671091 Z M 74.076259 -168.671091 " transform="matrix(0.0468795,0,0,0.0468795,0,10.079087)"/>
<path style=" stroke:none;fill-rule:nonzero;fill:url(#linear2);" d="M 10.941406 6.140625 C 10.652344 6.140625 10.425781 6.386719 10.445312 6.675781 L 10.941406 13.125 C 10.960938 13.382812 11.179688 13.582031 11.4375 13.582031 L 12.429688 13.582031 C 12.6875 13.582031 12.902344 13.382812 12.921875 13.125 L 13.417969 6.675781 C 13.441406 6.386719 13.214844 6.140625 12.925781 6.140625 Z M 11.933594 14.574219 C 11.382812 14.574219 10.941406 15.019531 10.941406 15.566406 C 10.941406 16.117188 11.382812 16.558594 11.933594 16.558594 C 12.484375 16.558594 12.925781 16.117188 12.925781 15.566406 C 12.925781 15.019531 12.484375 14.574219 11.933594 14.574219 Z M 11.933594 14.574219 "/>
<path style=" stroke:none;fill-rule:nonzero;fill:rgb(100%,100%,100%);fill-opacity:0.86129;" d="M 10.941406 6.140625 C 10.652344 6.140625 10.425781 6.386719 10.445312 6.675781 L 10.460938 6.878906 C 10.519531 6.671875 10.710938 6.515625 10.941406 6.515625 L 12.925781 6.515625 C 13.15625 6.515625 13.347656 6.671875 13.402344 6.878906 L 13.417969 6.675781 C 13.441406 6.386719 13.214844 6.140625 12.925781 6.140625 Z M 11.933594 14.574219 C 11.382812 14.574219 10.941406 15.019531 10.941406 15.566406 C 10.941406 15.632812 10.945312 15.695312 10.957031 15.753906 C 11.042969 15.292969 11.445312 14.949219 11.933594 14.949219 C 12.417969 14.949219 12.820312 15.292969 12.90625 15.753906 C 12.917969 15.695312 12.925781 15.632812 12.925781 15.566406 C 12.925781 15.019531 12.484375 14.574219 11.933594 14.574219 Z M 11.933594 14.574219 "/>
<path style=" stroke:none;fill-rule:nonzero;fill:rgb(0%,0%,0%);fill-opacity:0.235294;" d="M 10.46875 6.980469 C 10.449219 7.039062 10.441406 7.105469 10.445312 7.171875 L 10.941406 13.621094 C 10.960938 13.878906 11.179688 14.078125 11.4375 14.078125 L 12.429688 14.078125 C 12.6875 14.078125 12.902344 13.878906 12.921875 13.621094 L 13.417969 7.171875 C 13.425781 7.105469 13.414062 7.039062 13.394531 6.980469 L 12.921875 13.125 C 12.902344 13.382812 12.6875 13.582031 12.429688 13.582031 L 11.4375 13.582031 C 11.179688 13.582031 10.960938 13.382812 10.941406 13.125 Z M 10.972656 15.816406 C 10.953125 15.894531 10.941406 15.980469 10.941406 16.066406 C 10.941406 16.613281 11.382812 17.058594 11.933594 17.058594 C 12.484375 17.058594 12.925781 16.613281 12.925781 16.066406 C 12.925781 15.980469 12.914062 15.894531 12.894531 15.816406 C 12.785156 16.246094 12.398438 16.558594 11.933594 16.558594 C 11.46875 16.558594 11.082031 16.246094 10.972656 15.816406 Z M 10.972656 15.816406 "/>
<path style="fill:none;stroke-width:3;stroke-linecap:round;stroke-linejoin:round;stroke:rgb(12.941177%,12.941177%,12.941177%);stroke-opacity:1;stroke-miterlimit:4;" d="M 233.394379 -84.012509 C 227.228301 -84.012509 222.395429 -78.76301 222.812056 -72.596932 L 233.394379 64.973264 C 233.811005 70.472739 238.477227 74.722333 243.976701 74.722333 L 265.141347 74.722333 C 270.640822 74.722333 275.223717 70.472739 275.640344 64.973264 L 286.222667 -72.596932 C 286.722619 -78.76301 281.889748 -84.012509 275.72367 -84.012509 Z M 254.559024 95.886978 C 242.810146 95.886978 233.394379 105.386071 233.394379 117.051624 C 233.394379 128.800502 242.810146 138.21627 254.559024 138.21627 C 266.307902 138.21627 275.72367 128.800502 275.72367 117.051624 C 275.72367 105.386071 266.307902 95.886978 254.559024 95.886978 Z M 254.559024 95.886978 " transform="matrix(0.0468795,0,0,0.0468795,0,10.079087)"/>
</g>
</svg>
